X:100
T:Step Stately
R:Jig
M:6/8
L:1/8
Q:100
K:F
fed c>BA|BGG G>de/2f/2|g2e cfc|AFF F3||
g2f e2d|df2 f>gf/2g/2|e2d cfc|cAF F3||

